images/50655574.svg

<?xml version="1.0" encoding="UTF-8"?>
<svg xmlns="http://www.w3.org/2000/svg" xmlns:xlink="http://www.w3.org/1999/xlink" width="300pt" height="300pt" viewBox="0 0 300 300" version="1.1">
<defs>
<g>
<symbol overflow="visible" id="glyph0-0">
<path style="stroke:none;" d="M 0.796875 2.828125 L 0.796875 -11.28125 L 8.796875 -11.28125 L 8.796875 2.828125 Z M 1.703125 1.9375 L 7.90625 1.9375 L 7.90625 -10.390625 L 1.703125 -10.390625 Z M 1.703125 1.9375 "/>
</symbol>
<symbol overflow="visible" id="glyph0-1">
<path style="stroke:none;" d="M 1.578125 -11.671875 L 3.703125 -11.671875 L 8.875 -1.90625 L 8.875 -11.671875 L 10.40625 -11.671875 L 10.40625 0 L 8.28125 0 L 3.109375 -9.765625 L 3.109375 0 L 1.578125 0 Z M 1.578125 -11.671875 "/>
</symbol>
<symbol overflow="visible" id="glyph0-2">
<path style="stroke:none;" d="M 1.578125 -11.671875 L 3.15625 -11.671875 L 3.15625 -6.890625 L 8.890625 -6.890625 L 8.890625 -11.671875 L 10.46875 -11.671875 L 10.46875 0 L 8.890625 0 L 8.890625 -5.5625 L 3.15625 -5.5625 L 3.15625 0 L 1.578125 0 Z M 1.578125 -11.671875 "/>
</symbol>
</g>
</defs>
<g id="surface27925">
<rect x="0" y="0" width="300" height="300" style="fill:rgb(100%,100%,100%);fill-opacity:1;stroke:none;"/>
<path style="fill:none;stroke-width:1.2;stroke-linecap:butt;stroke-linejoin:miter;stroke:rgb(0%,0%,100%);stroke-opacity:1;stroke-miterlimit:10;" d="M 116.875 169.125 L 100.3125 178.6875 "/>
<path style="fill:none;stroke-width:1.2;stroke-linecap:butt;stroke-linejoin:miter;stroke:rgb(0%,0%,0%);stroke-opacity:1;stroke-miterlimit:10;" d="M 100.3125 178.6875 L 83.75 188.25 "/>
<path style="fill:none;stroke-width:1.2;stroke-linecap:butt;stroke-linejoin:miter;stroke:rgb(0%,0%,100%);stroke-opacity:1;stroke-miterlimit:10;" d="M 109.0625 163.242188 L 95.8125 170.894531 "/>
<path style="fill:none;stroke-width:1.2;stroke-linecap:butt;stroke-linejoin:miter;stroke:rgb(0%,0%,0%);stroke-opacity:1;stroke-miterlimit:10;" d="M 95.8125 170.894531 L 82.5625 178.542969 "/>
<path style="fill:none;stroke-width:1.2;stroke-linecap:butt;stroke-linejoin:miter;stroke:rgb(0%,0%,0%);stroke-opacity:1;stroke-miterlimit:10;" d="M 116.875 130.875 L 116.875 150 "/>
<path style="fill:none;stroke-width:1.2;stroke-linecap:butt;stroke-linejoin:miter;stroke:rgb(0%,0%,100%);stroke-opacity:1;stroke-miterlimit:10;" d="M 116.875 150 L 116.875 169.125 "/>
<path style=" stroke:none;fill-rule:nonzero;fill:rgb(100%,100%,100%);fill-opacity:1;" d="M 110.875 159.625 L 122.875 159.625 L 122.875 178.625 L 110.875 178.625 Z M 110.875 159.625 "/>
<g style="fill:rgb(0%,0%,100%);fill-opacity:1;">
  <use xlink:href="#glyph0-1" x="110.875" y="174.476562"/>
</g>
<path style="fill:none;stroke-width:1.2;stroke-linecap:butt;stroke-linejoin:miter;stroke:rgb(0%,0%,0%);stroke-opacity:1;stroke-miterlimit:10;" d="M 83.75 188.25 L 50.625 169.125 "/>
<path style="fill:none;stroke-width:1.2;stroke-linecap:butt;stroke-linejoin:miter;stroke:rgb(0%,0%,0%);stroke-opacity:1;stroke-miterlimit:10;" d="M 50.625 169.125 L 50.625 130.875 "/>
<path style="fill:none;stroke-width:1.2;stroke-linecap:butt;stroke-linejoin:miter;stroke:rgb(0%,0%,0%);stroke-opacity:1;stroke-miterlimit:10;" d="M 59.625 165.300781 L 59.625 134.699219 "/>
<path style="fill:none;stroke-width:1.2;stroke-linecap:butt;stroke-linejoin:miter;stroke:rgb(0%,0%,0%);stroke-opacity:1;stroke-miterlimit:10;" d="M 50.625 130.875 L 67.1875 121.3125 "/>
<path style="fill:none;stroke-width:1.2;stroke-linecap:butt;stroke-linejoin:miter;stroke:rgb(0%,0%,100%);stroke-opacity:1;stroke-miterlimit:10;" d="M 67.1875 121.3125 L 83.75 111.75 "/>
<path style="fill:none;stroke-width:1.2;stroke-linecap:butt;stroke-linejoin:miter;stroke:rgb(0%,0%,100%);stroke-opacity:1;stroke-miterlimit:10;" d="M 83.75 111.75 L 100.3125 121.3125 "/>
<path style="fill:none;stroke-width:1.2;stroke-linecap:butt;stroke-linejoin:miter;stroke:rgb(0%,0%,0%);stroke-opacity:1;stroke-miterlimit:10;" d="M 100.3125 121.3125 L 116.875 130.875 "/>
<path style="fill:none;stroke-width:1.2;stroke-linecap:butt;stroke-linejoin:miter;stroke:rgb(0%,0%,100%);stroke-opacity:1;stroke-miterlimit:10;" d="M 82.5625 121.457031 L 95.8125 129.105469 "/>
<path style="fill:none;stroke-width:1.2;stroke-linecap:butt;stroke-linejoin:miter;stroke:rgb(0%,0%,0%);stroke-opacity:1;stroke-miterlimit:10;" d="M 95.8125 129.105469 L 109.0625 136.757812 "/>
<path style=" stroke:none;fill-rule:nonzero;fill:rgb(100%,100%,100%);fill-opacity:1;" d="M 77.75 102.25 L 89.75 102.25 L 89.75 121.25 L 77.75 121.25 Z M 77.75 102.25 "/>
<g style="fill:rgb(0%,0%,100%);fill-opacity:1;">
  <use xlink:href="#glyph0-1" x="77.75" y="117.101562"/>
</g>
<path style="fill:none;stroke-width:1.2;stroke-linecap:butt;stroke-linejoin:miter;stroke:rgb(0%,0%,0%);stroke-opacity:1;stroke-miterlimit:10;" d="M 116.875 130.875 L 133.4375 121.3125 "/>
<path style="fill:none;stroke-width:1.2;stroke-linecap:butt;stroke-linejoin:miter;stroke:rgb(0%,0%,100%);stroke-opacity:1;stroke-miterlimit:10;" d="M 133.4375 121.3125 L 150 111.75 "/>
<path style="fill:none;stroke-width:1.2;stroke-linecap:butt;stroke-linejoin:miter;stroke:rgb(0%,0%,100%);stroke-opacity:1;stroke-miterlimit:10;" d="M 150 111.75 L 166.5625 121.3125 "/>
<path style="fill:none;stroke-width:1.2;stroke-linecap:butt;stroke-linejoin:miter;stroke:rgb(0%,0%,0%);stroke-opacity:1;stroke-miterlimit:10;" d="M 166.5625 121.3125 L 183.125 130.875 "/>
<path style=" stroke:none;fill-rule:nonzero;fill:rgb(100%,100%,100%);fill-opacity:1;" d="M 138 102.25 L 162 102.25 L 162 121.25 L 138 121.25 Z M 138 102.25 "/>
<g style="fill:rgb(0%,0%,100%);fill-opacity:1;">
  <use xlink:href="#glyph0-1" x="138" y="117.101562"/>
  <use xlink:href="#glyph0-2" x="149.96875" y="117.101562"/>
</g>
<path style="fill:none;stroke-width:1.2;stroke-linecap:butt;stroke-linejoin:miter;stroke:rgb(0%,0%,0%);stroke-opacity:1;stroke-miterlimit:10;" d="M 183.125 130.875 L 183.125 169.125 "/>
<path style="fill:none;stroke-width:1.2;stroke-linecap:butt;stroke-linejoin:miter;stroke:rgb(0%,0%,0%);stroke-opacity:1;stroke-miterlimit:10;" d="M 192.125 134.699219 L 192.125 165.300781 "/>
<path style="fill:none;stroke-width:1.2;stroke-linecap:butt;stroke-linejoin:miter;stroke:rgb(0%,0%,0%);stroke-opacity:1;stroke-miterlimit:10;" d="M 216.25 111.75 L 183.125 130.875 "/>
<path style="fill:none;stroke-width:1.2;stroke-linecap:butt;stroke-linejoin:miter;stroke:rgb(0%,0%,0%);stroke-opacity:1;stroke-miterlimit:10;" d="M 183.125 169.125 L 216.25 188.25 "/>
<path style="fill:none;stroke-width:1.2;stroke-linecap:butt;stroke-linejoin:miter;stroke:rgb(0%,0%,0%);stroke-opacity:1;stroke-miterlimit:10;" d="M 216.25 188.25 L 249.375 169.125 "/>
<path style="fill:none;stroke-width:1.2;stroke-linecap:butt;stroke-linejoin:miter;stroke:rgb(0%,0%,0%);stroke-opacity:1;stroke-miterlimit:10;" d="M 215.0625 178.542969 L 241.5625 163.242188 "/>
<path style="fill:none;stroke-width:1.2;stroke-linecap:butt;stroke-linejoin:miter;stroke:rgb(0%,0%,0%);stroke-opacity:1;stroke-miterlimit:10;" d="M 249.375 169.125 L 249.375 130.875 "/>
<path style="fill:none;stroke-width:1.2;stroke-linecap:butt;stroke-linejoin:miter;stroke:rgb(0%,0%,0%);stroke-opacity:1;stroke-miterlimit:10;" d="M 249.375 130.875 L 216.25 111.75 "/>
<path style="fill:none;stroke-width:1.2;stroke-linecap:butt;stroke-linejoin:miter;stroke:rgb(0%,0%,0%);stroke-opacity:1;stroke-miterlimit:10;" d="M 241.5625 136.757812 L 215.0625 121.457031 "/>
</g>
</svg>

<svg xmlns="http://www.w3.org/2000/svg" xmlns:xlink="http://www.w3.org/1999/xlink" width="300pt" height="300pt" viewBox="0 0 300 300"><defs><symbol overflow="visible"><path d="M.797 2.828v-14.11h8V2.83zm.906-.89h6.203v-12.33H1.703zm0 0"/></symbol><symbol overflow="visible" id="a"><path d="M1.578-11.672h2.125l5.172 9.766v-9.766h1.53V0H8.282L3.11-9.766V0H1.577zm0 0"/></symbol><symbol overflow="visible" id="b"><path d="M1.578-11.672h1.578v4.78H8.89v-4.78h1.58V0H8.89v-5.563H3.157V0H1.578zm0 0"/></symbol></defs><g><path fill="#fff" d="M0 0h300v300H0z"/><path d="M116.875 169.125l-16.563 9.563" stroke-width="1.2" stroke="#00f" stroke-miterlimit="10" fill="none"/><path d="M100.313 178.688L83.75 188.25" stroke-width="1.2" stroke="#000" stroke-miterlimit="10" fill="none"/><path d="M109.063 163.242l-13.25 7.653" stroke-width="1.2" stroke="#00f" stroke-miterlimit="10" fill="none"/><path d="M95.813 170.895l-13.25 7.648M116.875 130.875V150" stroke-width="1.2" stroke="#000" stroke-miterlimit="10" fill="none"/><path d="M116.875 150v19.125" stroke-width="1.2" stroke="#00f" stroke-miterlimit="10" fill="none"/><path d="M110.875 159.625h12v19h-12zm0 0" fill="#fff"/><use xlink:href="#a" x="110.875" y="174.477" fill="#00f"/><path d="M83.75 188.25l-33.125-19.125M50.625 169.125v-38.25M59.625 165.3v-30.6M50.625 130.875l16.563-9.563" stroke-width="1.2" stroke="#000" stroke-miterlimit="10" fill="none"/><path d="M67.188 121.313l16.562-9.563M83.75 111.75l16.563 9.563" stroke-width="1.2" stroke="#00f" stroke-miterlimit="10" fill="none"/><path d="M100.313 121.313l16.562 9.562" stroke-width="1.2" stroke="#000" stroke-miterlimit="10" fill="none"/><path d="M82.563 121.457l13.25 7.648" stroke-width="1.2" stroke="#00f" stroke-miterlimit="10" fill="none"/><path d="M95.813 129.105l13.25 7.653" stroke-width="1.2" stroke="#000" stroke-miterlimit="10" fill="none"/><path d="M77.75 102.25h12v19h-12zm0 0" fill="#fff"/><use xlink:href="#a" x="77.75" y="117.102" fill="#00f"/><path d="M116.875 130.875l16.563-9.563" stroke-width="1.2" stroke="#000" stroke-miterlimit="10" fill="none"/><path d="M133.438 121.313L150 111.75M150 111.75l16.563 9.563" stroke-width="1.2" stroke="#00f" stroke-miterlimit="10" fill="none"/><path d="M166.563 121.313l16.562 9.562" stroke-width="1.2" stroke="#000" stroke-miterlimit="10" fill="none"/><path d="M138 102.25h24v19h-24zm0 0" fill="#fff"/><g fill="#00f"><use xlink:href="#a" x="138" y="117.102"/><use xlink:href="#b" x="149.969" y="117.102"/></g><path d="M183.125 130.875v38.25M192.125 134.7v30.6M216.25 111.75l-33.125 19.125M183.125 169.125l33.125 19.125M216.25 188.25l33.125-19.125M215.063 178.543l26.5-15.3M249.375 169.125v-38.25M249.375 130.875L216.25 111.75M241.563 136.758l-26.5-15.3" stroke-width="1.2" stroke="#000" stroke-miterlimit="10" fill="none"/></g></svg>
